X:8844
T:La Blanche Biche
R:Chanson
O:France
B:Le livre des Chansons (Henri Davenson) n°8
Z:<anamnese@caramail.com> -- http://anamnese.fr.st
M:6/8
L:1/8
Q:1/4=95
K:F
G | G3 A B c | d3-d2 d | g3 g d e  | f2-e2 d d/-e/ |
    f3 g d c | B3-B2 B | c3 _e d c | B/-A/ G2-G z2 ||
W:Celles qui vont au bois, c'est la mère et la fille (2x)
W:
W:La mère va chantant et la fille soupire :
W:Qu'av'vous à soupirer, ma fille Marguerite ?
W:- J'ai bien grand ire en moi, et n'ose vous le dire :
W:Je suis fille le jour et la nuit blanche biche.
W:La chasse est après moi, les barons et les princes,
W:Et mon frère Renaud qui est encore bien pire.
W:Allez, ma mère, aller bien promptement lui dire
W:Qu'il arrête ses chiens jusqu'à demain ressie.
W:- Où sont tes chiens, Renaud, et ta chasse gentille ?
t aprÃ¨s moi, les barons et les princes,
W:Et mon frÃ¨re Renaud qui est encore bien pire.
W:Allez, ma mÃ¨re, aller bien promptement lui dire
W:Qu'il arrÃªte ses chiens jusqu'Ã  demain ressie.
W:- OÃ¹ sont tes chiens, Renaud, et ta chasse gentille ?
